icons/op-cursor-rectangle-select-16.svg

<svg width="16" height="16" viewBox="0 0 16 16" fill="none" xmlns="http://www.w3.org/2000/svg">
  <path d="M5.45378 12.9076C6.00607 12.9076 6.45378 13.3553 6.45378 13.9076V14.0588C6.45378 14.6111 6.00607 15.0588 5.45378 15.0588H5.30252C4.75024 15.0588 4.30252 14.6111 4.30252 14.0588V13.9076C4.30252 13.3553 4.75024 12.9076 5.30252 12.9076H5.45378ZM1.15126 12.9076C1.70355 12.9076 2.15126 13.3553 2.15126 13.9076V14.0588C2.15126 14.6111 1.70355 15.0588 1.15126 15.0588H1C0.447715 15.0588 0 14.6111 0 14.0588V13.9076C0 13.3553 0.447715 12.9076 1 12.9076H1.15126ZM14.0588 4.30252C14.6111 4.30252 15.0588 4.75024 15.0588 5.30252V5.45378C15.0588 6.00607 14.6111 6.45378 14.0588 6.45378H13.9076C13.3553 6.45378 12.9076 6.00607 12.9076 5.45378V5.30252C12.9076 4.75024 13.3553 4.30252 13.9076 4.30252H14.0588ZM14.0588 0C14.6111 0 15.0588 0.447715 15.0588 1V1.15126C15.0588 1.70355 14.6111 2.15126 14.0588 2.15126H13.9076C13.3553 2.15126 12.9076 1.70355 12.9076 1.15126V1C12.9076 0.447715 13.3553 0 13.9076 0H14.0588ZM9.7563 0C10.3086 0 10.7563 0.447715 10.7563 1V1.15126C10.7563 1.70355 10.3086 2.15126 9.7563 2.15126H9.60504C9.05276 2.15126 8.60504 1.70355 8.60504 1.15126V1C8.60504 0.447715 9.05276 0 9.60504 0H9.7563ZM5.45378 0C6.00607 0 6.45378 0.447715 6.45378 1V1.15126C6.45378 1.70355 6.00607 2.15126 5.45378 2.15126H5.30252C4.75024 2.15126 4.30252 1.70355 4.30252 1.15126V1C4.30252 0.447715 4.75024 0 5.30252 0H5.45378ZM1.15126 0C1.70355 0 2.15126 0.447715 2.15126 1V1.15126C2.15126 1.70355 1.70355 2.15126 1.15126 2.15126H1C0.447715 2.15126 0 1.70355 0 1.15126V1C0 0.447715 0.447715 0 1 0H1.15126ZM1.15126 8.60504C1.70355 8.60504 2.15126 9.05276 2.15126 9.60504V9.7563C2.15126 10.3086 1.70355 10.7563 1.15126 10.7563H1C0.447715 10.7563 0 10.3086 0 9.7563V9.60504C0 9.05276 0.447715 8.60504 1 8.60504H1.15126ZM1.15126 4.30252C1.70355 4.30252 2.15126 4.75024 2.15126 5.30252V5.45378C2.15126 6.00607 1.70355 6.45378 1.15126 6.45378H1C0.447715 6.45378 0 6.00607 0 5.45378V5.30252C0 4.75024 0.447715 4.30252 1 4.30252H1.15126Z" fill="black"/>
  <path fill-rule="evenodd" clip-rule="evenodd" d="M6.7414 6.74142C6.89066 6.59216 7.11502 6.54729 7.31021 6.62766L15.6762 10.0725C15.8709 10.1526 15.9985 10.3417 16 10.5522C16.0015 10.7628 15.8766 10.9536 15.6831 11.0366L12.6001 12.3579C12.6 12.3579 12.6001 12.3579 12.6001 12.3579C12.4913 12.4045 12.4045 12.4912 12.3579 12.6C12.3579 12.6 12.3579 12.6 12.3579 12.6L11.0365 15.6831C10.9536 15.8766 10.7627 16.0015 10.5522 16C10.3417 15.9985 10.1526 15.8709 10.0725 15.6762L6.62763 7.31023C6.54726 7.11505 6.59214 6.89068 6.7414 6.74142ZM8.07242 8.07244L10.5656 14.1273L11.3967 12.1881C11.5491 11.8325 11.8324 11.5492 12.188 11.3967L14.1273 10.5656L8.07242 8.07244Z" fill="black"/>
</svg>

<svg xmlns="http://www.w3.org/2000/svg" width="16" height="16" viewBox="0 0 16 16"><path d="M5.454 12.908a1 1 0 0 1 1 1v.151a1 1 0 0 1-1 1h-.151a1 1 0 0 1-1-1v-.151a1 1 0 0 1 1-1h.151Zm-4.303 0a1 1 0 0 1 1 1v.151a1 1 0 0 1-1 1H1a1 1 0 0 1-1-1v-.151a1 1 0 0 1 1-1h.151Zm12.908-8.605a1 1 0 0 1 1 1v.151a1 1 0 0 1-1 1h-.151a1 1 0 0 1-1-1v-.151a1 1 0 0 1 1-1h.151Zm0-4.303a1 1 0 0 1 1 1v.151a1 1 0 0 1-1 1h-.151a1 1 0 0 1-1-1V1a1 1 0 0 1 1-1h.151ZM9.756 0a1 1 0 0 1 1 1v.151a1 1 0 0 1-1 1h-.151a1 1 0 0 1-1-1V1a1 1 0 0 1 1-1h.151ZM5.454 0a1 1 0 0 1 1 1v.151a1 1 0 0 1-1 1h-.151a1 1 0 0 1-1-1V1a1 1 0 0 1 1-1h.151ZM1.151 0a1 1 0 0 1 1 1v.151a1 1 0 0 1-1 1H1a1 1 0 0 1-1-1V1a1 1 0 0 1 1-1h.151Zm0 8.605a1 1 0 0 1 1 1v.151a1 1 0 0 1-1 1H1a1 1 0 0 1-1-1v-.151a1 1 0 0 1 1-1h.151Zm0-4.302a1 1 0 0 1 1 1v.151a1 1 0 0 1-1 1H1a1 1 0 0 1-1-1v-.151a1 1 0 0 1 1-1h.151Zm5.59 2.438a.523.523 0 0 1 .569-.113l8.366 3.445a.523.523 0 0 1 .007.964L12.6 12.358a.462.462 0 0 0-.242.242l-1.322 3.083a.521.521 0 0 1-.963-.007L6.628 7.31a.523.523 0 0 1 .113-.569Zm1.331 1.331 2.494 6.055.831-1.939c.152-.355.435-.639.791-.791l1.939-.831Z"/></svg>
